src/icons/file-docker.svg

<svg width="16" height="16" viewBox="0 0 16 16" fill="none" xmlns="http://www.w3.org/2000/svg">
<path d="M12 4.5L12.5 4L12.7929 4.29289C13.2456 4.74565 13.5 5.35971 13.5 6C14.1403 6 14.7544 6.25435 15.2071 6.70711L15.5 7L15 7.5C14.1716 8.32843 12.8284 8.32843 12 7.5C11.1716 6.67157 11.1716 5.32843 12 4.5Z" fill="#5BAFD4"/>
<path d="M9 8V9L13 8V7L12 6.5C12 7.32843 11.3284 8 10.5 8H9Z" fill="#5BAFD4"/>
<rect x="8" y="5" width="2" height="2" rx="0.5" fill="#5BAFD4"/>
<rect x="5" y="5" width="2" height="2" rx="0.5" fill="#5BAFD4"/>
<rect x="2" y="5" width="2" height="2" rx="0.5" fill="#5BAFD4"/>
<rect x="3.5" y="2" width="2" height="2" rx="0.5" fill="#5BAFD4"/>
<rect x="6.5" y="2" width="2" height="2" rx="0.5" fill="#5BAFD4"/>
<path fill-rule="evenodd" clip-rule="evenodd" d="M0 9V9.5C0 12.2614 2.23858 14.5 5 14.5H6.5L7.56396 14.3363C10.6914 13.8552 13 11.1642 13 8H1C0.447715 8 0 8.44772 0 9ZM3 11C3 11.5523 3.44772 12 4 12C4.55228 12 5 11.5523 5 11C5 10.4477 4.55228 10 4 10C3.44772 10 3 10.4477 3 11Z" fill="#5BAFD4"/>
</svg>

<svg xmlns="http://www.w3.org/2000/svg" width="16" height="16" fill="none"><path fill="#5BAFD4" d="m12 4.5.5-.5.293.293c.453.453.707 1.067.707 1.707.64 0 1.254.254 1.707.707L15.5 7l-.5.5a2.121 2.121 0 1 1-3-3"/><path fill="#5BAFD4" d="M9 8v1l4-1V7l-1-.5A1.5 1.5 0 0 1 10.5 8z"/><rect width="2" height="2" x="8" y="5" fill="#5BAFD4" rx=".5"/><rect width="2" height="2" x="5" y="5" fill="#5BAFD4" rx=".5"/><rect width="2" height="2" x="2" y="5" fill="#5BAFD4" rx=".5"/><rect width="2" height="2" x="3.5" y="2" fill="#5BAFD4" rx=".5"/><rect width="2" height="2" x="6.5" y="2" fill="#5BAFD4" rx=".5"/><path fill="#5BAFD4" fill-rule="evenodd" d="M0 9v.5a5 5 0 0 0 5 5h1.5l1.064-.164A6.41 6.41 0 0 0 13 8H1a1 1 0 0 0-1 1m3 2a1 1 0 1 0 2 0 1 1 0 0 0-2 0" clip-rule="evenodd"/></svg>
